X: 37723
T: Soldier's Joy
R: hornpipe
M: 4/4
K: Dmajor
|:AFDF AFDF|A2 d2 d2 cB|AFDF AFDF|G2E2 E2 FG|
AFDF AFDF|A2 d2 d2 de|fafd egec|d2 d2 d4:|
|:fdfd fagf|edcd efge|fdfd fagf|edcB A2 de|
fdfd fagf|ecAc efge|fafd egec|d2 d2 d4:|

